X: 2
T: Holoholo
M: 12/8
L: 1/8
R: slide
K: Gmaj
|: dc |\
B2 G B2 G Bcd e2 f | g2 d dcB c2 A Adc |
B2 G B2 G Bcd e2 f | g2 d cBA B2 G G- :|
|: Gd |\
g2 g f2 f ege d2 c | B2 G gdB c2 A A2 d |
[1 g2 g f2 f ege d2 c | B2 G dcA B2 G G- :|
[2 B2 G B2 G Bcd e2 f | g2 d cBA B2 G G |]
